X:1
T:With Pleasure
T:Dance Hilarious
T:John Philip Sousa
T:Copyright, 1912 by the John Church Company
T:Copyright, 1912 by the John Church Company
T:Copyright, 1912 by the John Church Company
T:Copyright, 1912 by the John Church Company
Z:Copyright, 1912 by the John Church Company
%%score { ( 1 4 ) | ( 2 3 ) }
L:1/8
Q:1/4=100
M:2/4
K:C
V:1 treble nm="Piano" snm="Pno."
V:4 treble 
V:2 bass 
V:3 bass 
V:1
"^Allegro brillante"!ff! [cc']/!^![Bb][Aa]/- [Aa]2- | [Aa]/.^g/.a/.b/ .a/.=g/e | e/d^c/ !^!d!^!=c | %3
 G z !^![GBdg] G |:!p! E/GF/ E/GF/ | E/G^F/ (G/A/).B/.c/ | d/Ad/ (TBA) | (TBA) (TBA) | %8
 B/GA/ B/GA/ | (B/c/).d/.e/ (f/!<(!e/).f/.^g/!<)! |!mp! a/!^!ge/ cA | %11
!<(! G/!^!A!<)!G/!f! !^![FA]!^![FG] |!p! E/GF/ E/GF/ | E/G^F/ (G/A/).B/.c/ | d/Ad/ (TBA) | %15
 (TBA) (TBA) |!f! [c_ea] !^![cea]2 [cea] | [c=eg]/!^!ag/ e/c/!^!A | .[dfb]/.[dfb]/.[dfb] z [Bg] |1 %19
 [Ec] z z G :|2 [Ec] z [egc']!f!(d'/^d'/ |:[K:G]!f! e')(b/=d'/ e')(b/d'/ | %22
 e'/).d'/.b/ z/ z (3d/e/f/ | (g/f/).g/.e/ (g/f/).g/.e/ | [cf] z z (d'/^d'/) | %25
 e'(c'/=d'/ e')(c'/d'/ | .e'/).d'/.b/ z/ z (3d/e/^e/ | f/=e/f/d/ f/e/f/d/ | [Bg] z z (d/^d/ | %29
 e/).e'/.^d'/.e'/ e/e'/d'/e'/ | [ee']/[^d^d'][ee']/ .c'/.b/.a | e/e'/^d'/e'/ e/e'/d'/e'/ | %32
 [=d=d']/[^c^c'][dd']/ .[Bb]/.[Aa]/.[Gg] | e/e'/^d'/e'/ f/f'/e'/f'/ | %34
 [aa']/[gg'][ee']/ [dd']/b/a/g/ | (e/a/e'/) z/ z !^![cdf] | !^![Bdg] z z G ||[K:C]!p! E/GF/ E/GF/ | %38
 E/G^F/ (G/A/).B/.c/ | d/Ad/ (TBA) | (TBA) (TBA) | B/GA/ B/GA/ | %42
 (B/c/).d/.e/!<(! (f/e/).f/.^g/!<)! |!mp! a/!^!ge/ c!<(!A | G/!^!A!<)!G/!ff! !^![FA]!^![FG] | %45
!p! E/GF/ E/GF/ | E/G^F/ (G/A/).B/.c/ | d/Ad/ (TBA) | (TBA) (TBA) |!f! [c_ea] !^![cea]2 .[cea] | %50
 [c=eg]/!^!ag/ e/c/!^!A | .[dfb]/.[dfb]/.[dfb] z [Bg] |1 [Ec] z !^![cegc']!f!(d'/^d'/) :|2 %53
 c z [cegc'] z |:[K:F]!p!"^leggiero" .F>.F .F.F | .A/.G/.F .A/.G/.F | F/A/c/A/ !^![FAd-]2 | %57
 d.[Bf].[Be].B | !^!E>E EE | .G/.F/.E .G/.F/.E | .E/.G/.B/.G/ !^![EBd-]2 | d[Af][Ad]A | F>F FF | %63
 A/G/F A/G/F | F/A/c/A/ !^![^cf-]2 | f[Bdg][Be][Bd] |{/d} (fd){/d} (fd) |{/d} f/!^!dc/ A2 | %68
 f/!^!dc/ .A.G |1 F z z2 :|2 F z [FAcf] (f/^f/) ||[K:C]!f! .g/.e/.g/.^f/ .g/.e/.g/.f/ | %72
 .g/.e/.g/.^f/ .g/.e/.g/.f/ | .g/.a/.c'/.a/ .g/.a/.c'/.a/ |!8va(! d'/!>!a'^g'/ a'/f'/d'/b/!8va)! | %75
 .a/.f/.a/.=g/ .a/.f/.a/.g/ | .a/.f/.a/.g/ .a/.f/.a/.g/ | a/b/d'/b/ a/b/d'/b/ | %78
!8va(! c'/g'^f'/ g'/e'/c'/d'/ | e'/c'/e'/^d'/ e'/c'/e'/d'/ | e'/c'/e'/^d'/ e'/c'/e'/d'/ | %81
 e'/c'/a/b/ c'/b/c'/d'/ | e'/b'^a'/ b'/^g'/b'/=g'/ | c''/!>!a'g'/ .e'/.c'/.a/.g/!8va)! | %84
 e/!>!dc/ A2 | z (g/a/) z [Bfg] | [cec'] z z2 ||[K:F]!f! [FAcf]>[Ff] [Ff]f | .a/.g/.f .a/.g/.f | %89
 .f/.a/.c'/.a/ !^![fad'-]2 | d'.[gbf'].[gbe'].[gb] | !^![Be]>e ee | .g/.f/.e .g/.f/.e | %93
 .e/.g/.b/.g/ !^![ebd'-]2 | d'[faf'][fad'][fa] | !^![Acf]>f ff | .a/.g/.f .a/.g/.f | %97
 f/a/c'/a/ !^![f-^c'f'-]2 | [ff'].[gbg'].[gbe'].[gbd'] |!8va(!{/d'} !^!f'd'{/d'} !^!f'd' | %100
{/d'} !^!f'/d'c'/ a2 | f'/!^!d'c'/ .a.g | f!8va)! z !^![FAcf] z |] %103
V:2
 [C,E,G,C] z [C,C]/!^![B,,B,][A,,A,]/- | [A,,A,][F,A,C][C,E,G,C][^C,E,G,A,] | %2
 [D,F,A,] z !^!D,!^!=C, | G,, z !^![G,,D,G,] z |: C,[E,G,] C,[E,G,] | C,[E,G,] C,[E,G,] | %6
 F,,[F,A,] F,,[F,A,] | F,,[F,A,] F,,[F,A,] | G,,[F,G,] G,,[F,G,] | G,,[F,G,] G,,[F,G,] | %10
 C,[E,G,] C,[E,G,] | C,[E,G,] G,,[F,G,] | C,[E,G,] C,[E,G,] | C,[E,G,] C,[E,G,] | %14
 F,,[F,A,] F,,[F,A,] | F,,[F,A,] F,,[F,A,] | ^F,, !^![^F,A,]2 [F,A,] | [G,,G,] z z [A,CE] | %18
 F,[A,D] G,,[G,B,F] |1 [C,E,G,C]G,E,D, :|2 [C,E,G,C]z[C,E,G,C] z |:[K:G] G,,[G,B,] G,,[G,B,] | %22
 G,,[G,B,][G,B,][G,B,] | G,,[G,B,] G,,[G,B,] | E,/!^!^D,E,/ =D,/^C,/D, | A,,[F,C] D,[F,C] | %26
 A,,[F,C] D,[F,C] | A,,[F,C] D,[F,C] | E,/^D,E,/ =D,/^C,/D, | C,[E,G,C] B,,[E,^G,=D] | %30
 A,,[E,A,C] .C,/.B,,/.A,, | C,[E,G,C] ^C,[G,A,] | D,[F,A,] .B,,/.A,,/.G,, | ^C,[G,A,] =C,[F,A,] | %34
 B,, [G,B,D]2 [E,G,B,E] | A,,[A,CE] D,[CD] | G,G,/A,/ G,/!>(!=F,/E,/D,/!>)! || %37
[K:C] C,[E,G,] C,[E,G,] | C,[E,G,] C,[E,G,] | F,,[F,A,] F,,[F,A,] | F,,[F,A,] F,,[F,A,] | %41
 G,,[F,G,] G,,[F,G,] | G,,[F,G,] G,,[F,G,] | C,[E,G,] C,[E,G,] | C,[E,G,] G,,[F,G,] | %45
 C,[E,G,] C,[E,G,] | C,[E,G,] C,[E,G,] | F,,[F,A,] F,,[F,A,] | F,,[F,A,] F,,[F,A,] | %49
 ^F,, !^![^F,A,]2 [F,A,] | [G,,G,] z z [A,CE] | F,[A,D] G,,[G,B,] |1 [C,E,G,C] z [C,E,G,C] z :|2 %53
 [C,E,G,C] z [C,E,G,C] z |:[K:F] F,[A,C] C,[A,C] | F,[A,C] C,[A,C] | F,[A,C] C,[A,C] | %57
 G,[B,C]C,[B,C] | G,[B,C]C,[B,C] | G,[B,C]C,[B,C] | G,[B,C]C,[B,C] | F,[A,C] C,[A,C] | %62
 F,[A,C] C,[A,C] | F,[A,C] C,[A,C] | F,[A,C] A,[^CF] | B,D G,[B,D] | B,,[F,B,D] D,[F,A,D] | %67
 A,,[F,A,C] D,[F,A,D] | A,,[F,A,C] C,[B,C] |1 [F,A,C](E,D,C,) :|2 [F,A,C] z [F,,C,F,] z || %71
[K:C] C,[E,G,C] C,[E,G,C] | C,[E,G,C] C,[E,G,C] | C,[E,G,C] C,[E,G,C] | D,[F,G,] G,,[F,G,] | %75
 D,[F,G,] G,,[F,G,] | D,[F,G,] G,,[F,G,] | D,[F,G,] G,,[F,G,] | C,[E,G,C] C,[E,G,C] | %79
 A,,[A,CE] [A,CE][A,CE] | A,,[A,CE] [A,CE][A,CE] | A,,E,A,F, | E,[^G,B,E][G,B,E][=G,B,F] | %83
 !arpeggio![C,E,G,E] z z2 | z2 z (([^F,C-_E] | [G,C=E])) z !^!G,, z | %86
 C,(C,/D,/ C,/_B,,/A,,/G,,/) ||[K:F] F,,[A,C] C,[A,C] | F,[A,C] C,[A,C] | F,[A,C] C,[A,C] | %90
 G,[B,C] C,[B,C] | G,[B,C] C,[B,C] | G,[B,C] C,[B,C] | G,[B,C] C,[B,C] | F,[A,C] C,[A,C] | %95
 F,[A,C] C,[A,C] | F,[A,C] C,[A,C] | F,[A,C] A,,[A,^C] | B,,[B,D] G,[B,D] | B,,[F,B,D] D,[F,A,D] | %100
 A,,[F,A,C] D,[F,A,D] | A,,[F,A,C] C,[B,C] | [F,A,C] z !^!F,, z |] %103
V:3
 x4 | x4 | x4 | x4 |: x4 | x4 | x4 | x4 | x4 | x4 | x4 | x4 | x4 | x4 | x4 | x4 | x4 | x4 | x4 |1 %19
 x4 :|2 x4 |:[K:G] x4 | x4 | x4 | x4 | x4 | x4 | x4 | x4 | C,2 B,,2 | x4 | C,2 ^C,2 | D,2 x2 | %33
 ^C,2 =C,2 | x4 | x4 | x4 ||[K:C] x4 | x4 | x4 | x4 | x4 | x4 | x4 | x4 | x4 | x4 | x4 | x4 | x4 | %50
 x4 | x4 |1 x4 :|2 x4 |:[K:F] x4 | x4 | x4 | x4 | x4 | x4 | x4 | x4 | x4 | x4 | x4 | x4 | %66
 B,,2 D,2 | A,,2 D,2 | A,,2 C,2 |1 x4 :|2 x4 ||[K:C] x4 | x4 | x4 | x4 | x4 | x4 | x4 | x4 | x4 | %80
 x4 | x4 | x4 | x4 | x4 | x4 | x4 ||[K:F] x4 | x4 | x4 | x4 | x4 | x4 | x4 | x4 | x4 | x4 | x4 | %98
 x4 | x2 D,2 | A,,2 D,2 | A,,2 C,2 | x4 |] %103
V:4
 x4 | x4 | x4 | x4 |: x4 | x4 | x4 | x4 | x4 | x4 | x4 | x4 | x4 | x4 | x4 | x4 | x4 | x4 | x4 |1 %19
 x4 :|2 x4 |:[K:G] x4 | x4 | x4 | x4 | x4 | x4 | x4 | x4 | x4 | x4 | x4 | x4 | x4 | x4 | x4 | x4 || %37
[K:C] x4 | x4 | x4 | x4 | x4 | x4 | x4 | x4 | x4 | x4 | x4 | x4 | x4 | x4 | x4 |1 x4 :|2 x4 |: %54
[K:F] x4 | x4 | x4 | x4 | x4 | x4 | x4 | x4 | x4 | x4 | x4 | x4 | B2 A2 | F2 F2 | F2 EE |1 x4 :|2 %70
 x4 ||[K:C] x4 | x4 | x4 |!8va(! x4!8va)! | x4 | x4 | x4 |!8va(! x4 | x4 | x4 | x4 | x4 | %83
 x4!8va)! | x4 | x [ce] x2 | x4 ||[K:F] x4 | x4 | x4 | x4 | x4 | x4 | x4 | x4 | x4 | x4 | x4 | x4 | %99
!8va(! b2 a2 | f2 f2 | f2 ee | x!8va)! x3 |] %103

